public/images/icons/swapr.svg

<svg width="84" height="84" viewBox="0 0 84 84" fill="none" xmlns="http://www.w3.org/2000/svg">
<path fill-rule="evenodd" clip-rule="evenodd" d="M0 56.6037V41.9999C0 18.804 18.804 0 41.9998 0C53.441 0 63.814 4.57489 71.3887 11.9951L62.46 17.5743C56.9251 12.9328 49.7889 10.1379 41.9998 10.1379C24.403 10.1379 10.1379 24.403 10.1379 41.9999H20.2758L0 56.6037ZM21.3862 66.2955C26.9426 71.015 34.1392 73.862 42.0004 73.862C59.5972 73.862 73.8625 59.597 73.8625 41.9999H63.7245L83.9993 27.1553L84.0002 41.9999C84.0002 65.1959 65.1964 84 42.0004 84C30.4882 84 20.0578 79.3682 12.471 71.8663L21.3862 66.2955ZM58.1119 55.9396H46.5257L42.0004 49.8265L37.4751 55.9396H25.8889L36.3851 42.241L25.8879 28.0605H36.75L42.0004 34.9127L47.2508 28.0605H58.113L47.6157 42.241L58.1119 55.9396Z" fill="url(#paint0_linear_56_85)"/>
<defs>
<linearGradient id="paint0_linear_56_85" x1="2.50173e-06" y1="42" x2="67.2181" y2="8.41333" gradientUnits="userSpaceOnUse">
<stop stop-color="#FFE7E0"/>
<stop offset="0.109375" stop-color="#F8DBF4"/>
<stop offset="0.526042" stop-color="#C4DDFF"/>
<stop offset="1" stop-color="#CAE9FF"/>
</linearGradient>
</defs>
</svg>

<svg viewBox="0 0 84 84" fill="none" xmlns="http://www.w3.org/2000/svg"><path fill-rule="evenodd" clip-rule="evenodd" d="M0 56.604V42C0 18.804 18.804 0 42 0 53.44 0 63.814 4.575 71.389 11.995l-8.929 5.58A31.733 31.733 0 0 0 42 10.137c-17.597 0-31.862 14.265-31.862 31.862h10.138L0 56.604Zm21.386 9.692A31.734 31.734 0 0 0 42 73.862c17.597 0 31.862-14.265 31.862-31.862H63.725l20.274-14.845L84 42c0 23.196-18.804 42-42 42-11.512 0-21.942-4.632-29.529-12.134l8.915-5.57ZM58.112 55.94H46.526L42 49.827l-4.525 6.113H25.89L36.385 42.24l-10.497-14.18H36.75L42 34.913l5.25-6.852h10.863L47.616 42.24 58.112 55.94Z" fill="url(#a)"/><defs><linearGradient id="a" x1="0" y1="42" x2="67.218" y2="8.413" gradientUnits="userSpaceOnUse"><stop stop-color="#FFE7E0"/><stop offset=".109" stop-color="#F8DBF4"/><stop offset=".526" stop-color="#C4DDFF"/><stop offset="1" stop-color="#CAE9FF"/></linearGradient></defs></svg>
